img/icons/this/contacts/contacts-phone.svg

<svg width="50" height="50" viewBox="0 0 50 50" fill="none" xmlns="http://www.w3.org/2000/svg">
<path d="M17.4165 12.4905C17.3085 12.3481 17.1722 12.2309 17.0166 12.1467C16.8611 12.0624 16.6898 12.0131 16.5142 12.0019C16.3386 11.9907 16.1627 12.018 15.9981 12.0819C15.8336 12.1457 15.6842 12.2448 15.5598 12.3724L13.6684 14.3129C12.7849 15.2204 12.4593 16.5048 12.8453 17.6316C14.4472 22.2957 17.053 26.5303 20.4694 30.0213C23.8753 33.5231 28.0066 36.1941 32.5569 37.8361C33.6562 38.2317 34.9092 37.898 35.7946 36.9924L37.686 35.0537C37.8105 34.9262 37.9071 34.7731 37.9694 34.6045C38.0317 34.4358 38.0583 34.2555 38.0474 34.0755C38.0365 33.8955 37.9883 33.7199 37.9062 33.5605C37.824 33.401 37.7096 33.2613 37.5707 33.1506L33.3507 29.7869C33.2023 29.669 33.0297 29.5871 32.846 29.5474C32.6622 29.5078 32.472 29.5115 32.2898 29.5582L28.2838 30.5838C27.7491 30.7208 27.1889 30.7135 26.6577 30.5627C26.1266 30.4119 25.6426 30.1227 25.2528 29.7232L20.7603 25.1164C20.3702 24.7171 20.0877 24.2211 19.9403 23.6767C19.7928 23.1322 19.7854 22.5579 19.9188 22.0096L20.9213 17.9035C20.9668 17.7167 20.9704 17.5218 20.9317 17.3334C20.8931 17.145 20.8132 16.9681 20.6981 16.816L17.4165 12.4905ZM14.1788 10.9587C14.4989 10.6304 14.8834 10.3758 15.3069 10.2116C15.7304 10.0474 16.1831 9.97745 16.635 10.0064C17.0869 10.0353 17.5276 10.1624 17.9279 10.3793C18.3282 10.5961 18.6789 10.8978 18.9567 11.2643L22.2383 15.5879C22.8401 16.381 23.0523 17.4141 22.8145 18.3891L21.8139 22.4952C21.7622 22.7079 21.765 22.9307 21.822 23.1419C21.8791 23.3532 21.9884 23.5457 22.1395 23.7008L26.6339 28.3076C26.7854 28.4628 26.9736 28.5751 27.18 28.6335C27.3864 28.692 27.6041 28.6947 27.8119 28.6413L31.816 27.6157C32.2854 27.4954 32.7754 27.4861 33.2488 27.5884C33.7223 27.6907 34.1668 27.902 34.5489 28.2064L38.767 31.57C40.2835 32.7794 40.4225 35.0762 39.0652 36.4655L37.1738 38.4042C35.8202 39.7917 33.7971 40.4011 31.9112 39.7205C27.0842 37.9796 22.7016 35.1471 19.0884 31.4332C15.4652 27.7301 12.7019 23.2386 11.0033 18.2916C10.3411 16.3604 10.9356 14.2848 12.2892 12.8974L14.1806 10.9587H14.1788Z" fill="#45594F"/>
<circle cx="25" cy="25" r="23.5" stroke="#45594F" stroke-width="3"/>
</svg>

<svg width="50" height="50" fill="none" xmlns="http://www.w3.org/2000/svg"><path d="M17.416 12.49a1.247 1.247 0 00-.4-.343 1.216 1.216 0 00-1.456.225l-1.892 1.94c-.883.908-1.209 2.193-.823 3.32a33.062 33.062 0 007.624 12.39 32.042 32.042 0 0012.088 7.814c1.1.396 2.352.062 3.238-.844l1.891-1.938a1.276 1.276 0 00.361-.979 1.265 1.265 0 00-.477-.925l-4.22-3.363a1.211 1.211 0 00-1.06-.229l-4.006 1.026a3.117 3.117 0 01-1.626-.021 3.176 3.176 0 01-1.405-.84l-4.493-4.607a3.29 3.29 0 01-.82-1.44 3.35 3.35 0 01-.021-1.666l1.002-4.107a1.303 1.303 0 00-.223-1.087l-3.282-4.325zm-3.236-1.53c.32-.329.704-.583 1.128-.747a3.12 3.12 0 012.62.167c.401.217.752.519 1.03.885l3.281 4.324c.602.793.814 1.826.576 2.801l-1 4.106a1.3 1.3 0 00.326 1.206l4.494 4.607a1.21 1.21 0 001.178.334l4.004-1.026a3.126 3.126 0 012.733.59l4.218 3.364c1.516 1.21 1.655 3.506.298 4.895l-1.891 1.94c-1.354 1.387-3.377 1.996-5.263 1.316a33.985 33.985 0 01-12.823-8.288 35.068 35.068 0 01-8.085-13.141c-.662-1.932-.067-4.007 1.286-5.395l1.892-1.938h-.002z" fill="#45594F"/><circle cx="25" cy="25" r="23.5" stroke="#45594F" stroke-width="3"/></svg>
